X: 41715
T: Valley Of Silence
R: reel
M: 4/4
K: Fdorian
G,|:G,2 C>E D^B,C z/E/|E^B,C z/ c/ ^BAG z/ G,/|
G,2 C>E D^B,C z/ c/|1 ^B/G/A/^F/ G^B c3 G,:|2 ^B/G/A/^F/ G^B c3 B||
[B2g2] [Bg]>[Af] [G2e2] [B,2E2B2]|[A,Ec]ccc [B,3E3B3] B,|B,2 CD EGBe|dfaa a3 B|
[B2g2] [Bg]>[Af] [G2e2] [B,2E2B2]|[A,Ec]ccc [B,3E3B3] B,|B,2 CD EFGA|G2 F>E E4||

